_inc/logos/setup.svg

<!-- Created by ERK --><svg xmlns="http://www.w3.org/2000/svg" viewBox="0 0 936 371"><g fill="none" stroke-width="2"><path stroke="#dbe893" d="M614.12 118.75h52.35a.23.23 0 0 0 .18-.38L583.19 18.2a.38.37 44.6 0 0-.57 0l-83.36 100.05q-.41.5.24.5h50.28a.48.48 0 0 1 .48.48q-.04 57.9.02 115.75c.02 17.27 1.56 35.1 8.48 50.02 10.78 23.25 30.58 35.44 55.06 40.46q34.11 7 66.67-1.98c37.35-10.29 55.3-42.53 55.56-79.48q.38-53.46.14-106.83a.42.41 90 0 0-.41-.42h-62.75a.51.5-90 0 0-.5.51q-.06 52.5-.11 104.99c-.02 19.67-11.76 32.78-32.46 30.75-22.06-2.16-26.25-19.17-26.24-38.25q.02-57.81.08-115.68a.32.32 0 0 1 .32-.32" vector-effect="non-scaling-stroke"/><path stroke="#a2a3a4" d="M23.56 296.49a.54.53 40.1 0 0 .07.76c31.88 26.03 75.14 34.67 115.3 29.72 32.41-4 60.88-22.83 63.16-57.97 3.37-51.81-51.46-59.71-89.05-67.48-5.94-1.23-18.77-4.31-15.84-12.99 1.78-5.28 9.09-6.1 13.79-5.99q30.83.68 56.02 18.1a.51.5 34.5 0 0 .69-.12l29.63-41.19a.61.6 36.7 0 0-.13-.83c-28.15-21.35-63.32-27.78-98.44-24.34-35.81 3.51-67.42 25.92-65.25 65.44 1.73 31.38 26.55 43.83 53 51.63q12.33 3.64 35.81 8.4c3.64.73 15.15 3.92 16.2 8.38 1.94 8.25-5.62 10.74-11.84 10.94q-38.77 1.26-69.77-21.46a.61.6-51.5 0 0-.82.1l-32.53 38.9m244.92-23.02a.3.3 0 0 1-.3-.3l.06-20.37a.3.3 0 0 1 .3-.3h91.36a.3.3 0 0 0 .3-.3v-44.15a.3.3 0 0 0-.3-.3h-91.44a.3.3 0 0 1-.3-.3V188.3a.3.3 0 0 1 .3-.3h97.98a.3.3 0 0 0 .3-.3l.03-50.65a.3.3 0 0 0-.3-.3H207.05a.3.3 0 0 0-.3.3v187.4a.3.3 0 0 0 .3.3h160.9a.3.3 0 0 0 .3-.3v-50.32a.3.3 0 0 0-.3-.3l-99.47-.36m221.02-83.09a.88.87-90 0 1 .87-.88h54.13a.5.49-90 0 0 .49-.5l.02-51.65a.6.6 0 0 0-.6-.6H372.25a.5.5 0 0 0-.5.5v51.72a.51.5 0 0 0 .51.5c15.07.02 30.23-.25 45.29.27q3.97.14 8.14-.35a1.18 1.17-3.3 0 1 1.31 1.16v133.7a.5.5 0 0 0 .5.5H489a.5.5 0 0 0 .5-.5V190.38" vector-effect="non-scaling-stroke"/><path stroke="#dbe893" d="M804.5 273.81q12.39-.1 24.73-.28c48.13-.71 86.84-28.36 79.66-81-5.62-41.21-44.41-55.34-80.65-55.57q-43.2-.27-86.5-.16a.49.48 0 0 0-.49.48v187.06a.41.41 0 0 0 .41.41h61.82a.49.49 0 0 0 .49-.48l.05-49.97a.49.48-90 0 1 .48-.49" vector-effect="non-scaling-stroke"/><path stroke="#dbe893" d="M804.47 229.19c15.12.54 42.57 2.52 43.52-20.18 1.08-25.73-27.36-22.31-43.55-22.24a.44.44 0 0 0-.44.44v41.49a.49.49 0 0 0 .47.49" vector-effect="non-scaling-stroke"/></g><g fill="#fff"><path d="M191.3 321.38c-18.19 14.96-43.2 21.23-66.33 21.98-35.35 1.14-74.09-7.37-103.06-28.45-7.59-5.53-13.11-9.49-13.26-18.41q-.1-5.82 4.43-11.17 15.43-18.24 30.68-36.63a.48.48 0 0 0-.08-.69c-25.87-19.42-30.84-49.99-20.23-79.32 11.84-32.69 47.36-48.24 79.84-50.27 29.1-1.81 62.34 3.36 88.21 18.05a.33.32 18.1 0 0 .49-.24c1.49-12.57 9.83-14.42 21.29-14.43q76.06-.1 152.12-.03.12 0 3.16.38c1.57.19 2.98-.39 4.35-.39q55.52-.01 111.04-.01a.42.42 0 0 0 .41-.49c-.77-4.3.1-9.13 3-12.59q41.13-49.03 81.95-98.31c5.57-6.72 12.49-9.87 20.78-5.66q2.89 1.47 6.15 5.4c27.08 32.59 53.86 65.61 81.61 97.61 3.56 4.1 4.5 8.42 3.79 13.54a.44.44 0 0 0 .44.49q69.58.05 139.18 0c17.99-.01 32.81 1.66 49.2 6.86 23.25 7.37 43.38 24.91 50.47 48.6 6.55 21.89 4.99 47.52-5.95 67.79-14.77 27.35-43.4 38.79-72.92 42.87q-4.87.67-22.38 1.27a.52.52 0 0 0-.5.52q-.11 15.27-.24 30.48c-.12 14.5-4.38 19.74-18.95 19.82q-41.47.22-58.99-.01c-14.01-.19-16.02-13.25-14.85-24.08q.27-2.51-1.53-.73c-30.88 30.74-84.58 33.62-124.34 22.48-39.83-11.15-59.75-42.23-64.36-81.57-1.85-15.76-.98-34.11-.93-50.78a.51.5 90 0 0-.5-.51l-29.44-.01a.36.35 90 0 0-.35.36q.1 58.91.04 117.91c-.01 2.58-1.52 8.08-3.27 10.55q-4.52 6.39-12.48 6.4-30.46.07-60.95.04c-11.36-.02-16.04-7.38-16.04-17.93V205.2a.46.45 0 0 0-.46-.45h-36.51a.42.41-4.7 0 0-.41.48c.2 1.15.63 2.24.63 3.38v41.08c0 3.5-.79 6.32-1.78 9.55a.57.56 21.2 0 0 .31.68c8.19 3.67 9.31 9.72 9.4 18.68q.37 34.07-.03 45.63c-.49 13.83-9.9 15.76-21.95 15.76q-74.5.03-148.98-.01c-8.21-.01-15.04-.74-18.62-8.01q-1.91-3.9-1.92-10.41 0-.49-.38-.18m422.82-202.63h52.35a.23.23 0 0 0 .18-.38L583.19 18.2a.38.37 44.6 0 0-.57 0l-83.36 100.05q-.41.5.24.5h50.28a.48.48 0 0 1 .48.48q-.04 57.9.02 115.75c.02 17.27 1.56 35.1 8.48 50.02 10.78 23.25 30.58 35.44 55.06 40.46q34.11 7 66.67-1.98c37.35-10.29 55.3-42.53 55.56-79.48q.38-53.46.14-106.83a.42.41 90 0 0-.41-.42h-62.75a.51.5-90 0 0-.5.51q-.06 52.5-.11 104.99c-.02 19.67-11.76 32.78-32.46 30.75-22.06-2.16-26.25-19.17-26.24-38.25q.02-57.81.08-115.68a.32.32 0 0 1 .32-.32M23.56 296.49a.54.53 40.1 0 0 .07.76c31.88 26.03 75.14 34.67 115.3 29.72 32.41-4 60.88-22.83 63.16-57.97 3.37-51.81-51.46-59.71-89.05-67.48-5.94-1.23-18.77-4.31-15.84-12.99 1.78-5.28 9.09-6.1 13.79-5.99q30.83.68 56.02 18.1a.51.5 34.5 0 0 .69-.12l29.63-41.19a.61.6 36.7 0 0-.13-.83c-28.15-21.35-63.32-27.78-98.44-24.34-35.81 3.51-67.42 25.92-65.25 65.44 1.73 31.38 26.55 43.83 53 51.63q12.33 3.64 35.81 8.4c3.64.73 15.15 3.92 16.2 8.38 1.94 8.25-5.62 10.74-11.84 10.94q-38.77 1.26-69.77-21.46a.61.6-51.5 0 0-.82.1zm244.92-23.02a.3.3 0 0 1-.3-.3l.06-20.37a.3.3 0 0 1 .3-.3h91.36a.3.3 0 0 0 .3-.3v-44.15a.3.3 0 0 0-.3-.3h-91.44a.3.3 0 0 1-.3-.3V188.3a.3.3 0 0 1 .3-.3h97.98a.3.3 0 0 0 .3-.3l.03-50.65a.3.3 0 0 0-.3-.3H207.05a.3.3 0 0 0-.3.3v187.4a.3.3 0 0 0 .3.3h160.9a.3.3 0 0 0 .3-.3v-50.32a.3.3 0 0 0-.3-.3zm221.02-83.09a.88.87-90 0 1 .87-.88h54.13a.5.49-90 0 0 .49-.5l.02-51.65a.6.6 0 0 0-.6-.6H372.25a.5.5 0 0 0-.5.5v51.72a.51.5 0 0 0 .51.5c15.07.02 30.23-.25 45.29.27q3.97.14 8.14-.35a1.18 1.17-3.3 0 1 1.31 1.16v133.7a.5.5 0 0 0 .5.5H489a.5.5 0 0 0 .5-.5zm315 83.43q12.39-.1 24.73-.28c48.13-.71 86.84-28.36 79.66-81-5.62-41.21-44.41-55.34-80.65-55.57q-43.2-.27-86.5-.16a.49.48 0 0 0-.49.48v187.06a.41.41 0 0 0 .41.41h61.82a.49.49 0 0 0 .49-.48l.05-49.97a.49.48-90 0 1 .48-.49"/><path d="M847.99 209.01c-.95 22.7-28.4 20.72-43.52 20.18a.49.49 0 0 1-.47-.49v-41.49a.44.44 0 0 1 .44-.44c16.19-.07 44.63-3.49 43.55 22.24"/></g><path fill="#454648" d="m23.56 296.49 32.53-38.9a.61.6-51.5 0 1 .82-.1q31 22.72 69.77 21.46c6.22-.2 13.78-2.69 11.84-10.94-1.05-4.46-12.56-7.65-16.2-8.38q-23.48-4.76-35.81-8.4c-26.45-7.8-51.27-20.25-53-51.63-2.17-39.52 29.44-61.93 65.25-65.44 35.12-3.44 70.29 2.99 98.44 24.34a.61.6 36.7 0 1 .13.83l-29.63 41.19a.51.5 34.5 0 1-.69.12q-25.19-17.42-56.02-18.1c-4.7-.11-12.01.71-13.79 5.99-2.93 8.68 9.9 11.76 15.84 12.99 37.59 7.77 92.42 15.67 89.05 67.48-2.28 35.14-30.75 53.97-63.16 57.97-40.16 4.95-83.42-3.69-115.3-29.72a.54.53 40.1 0 1-.07-.76m244.92-23.02 99.47.36a.3.3 0 0 1 .3.3v50.32a.3.3 0 0 1-.3.3h-160.9a.3.3 0 0 1-.3-.3v-187.4a.3.3 0 0 1 .3-.3h159.42a.3.3 0 0 1 .3.3l-.03 50.65a.3.3 0 0 1-.3.3h-97.98a.3.3 0 0 0-.3.3v19.15a.3.3 0 0 0 .3.3h91.44a.3.3 0 0 1 .3.3v44.15a.3.3 0 0 1-.3.3h-91.36a.3.3 0 0 0-.3.3l-.06 20.37a.3.3 0 0 0 .3.3m221.02-83.09v133.87a.5.5 0 0 1-.5.5h-61.5a.5.5 0 0 1-.5-.5v-133.7a1.18 1.17-3.3 0 0-1.31-1.16q-4.17.49-8.14.35c-15.06-.52-30.22-.25-45.29-.27a.51.5 0 0 1-.51-.5v-51.72a.5.5 0 0 1 .5-.5h172.16a.6.6 0 0 1 .6.6l-.02 51.65a.5.49-90 0 1-.49.5h-54.13a.88.87 90 0 0-.87.88"/><path fill="#b7d126" d="M614.12 118.75a.32.32 0 0 0-.32.32q-.06 57.87-.08 115.68c-.01 19.08 4.18 36.09 26.24 38.25 20.7 2.03 32.44-11.08 32.46-30.75q.05-52.49.11-104.99a.51.5-90 0 1 .5-.51h62.75a.42.41-90 0 1 .41.42q.24 53.37-.14 106.83c-.26 36.95-18.21 69.19-55.56 79.48q-32.56 8.98-66.67 1.98c-24.48-5.02-44.28-17.21-55.06-40.46-6.92-14.92-8.46-32.75-8.48-50.02q-.06-57.85-.02-115.75a.48.48 0 0 0-.48-.48H499.5q-.65 0-.24-.5L582.62 18.2a.38.37 44.6 0 1 .57 0l83.46 100.17a.23.23 0 0 1-.18.38zm189.9 155.55-.05 49.97a.49.49 0 0 1-.49.48h-61.82a.41.41 0 0 1-.41-.41V137.28a.49.48 0 0 1 .49-.48q43.3-.11 86.5.16c36.24.23 75.03 14.36 80.65 55.57 7.18 52.64-31.53 80.29-79.66 81q-12.34.18-24.73.28a.49.48-90 0 0-.48.49m.45-45.11c15.12.54 42.57 2.52 43.52-20.18 1.08-25.73-27.36-22.31-43.55-22.24a.44.44 0 0 0-.44.44v41.49a.49.49 0 0 0 .47.49"/></svg>

<?xml version="1.0" encoding="UTF-8" standalone="no"?>
<!DOCTYPE svg PUBLIC "-//W3C//DTD SVG 1.1//EN" "http://www.w3.org/Graphics/SVG/1.1/DTD/svg11.dtd">
<svg xmlns="http://www.w3.org/2000/svg" version="1.1" viewBox="0 0 936 371">
<g stroke-width="2.00" fill="none" stroke-linecap="butt">
<path stroke="#dbe893" vector-effect="non-scaling-stroke" d="
  M 614.12 118.75
  L 666.47 118.75
  A 0.23 0.23 0.0 0 0 666.65 118.37
  L 583.19 18.20
  A 0.38 0.37 44.6 0 0 582.62 18.20
  L 499.26 118.25
  Q 498.85 118.75 499.50 118.75
  L 549.78 118.75
  A 0.48 0.48 0.0 0 1 550.26 119.23
  Q 550.22 177.13 550.28 234.98
  C 550.30 252.25 551.84 270.08 558.76 285.00
  C 569.54 308.25 589.34 320.44 613.82 325.46
  Q 647.93 332.46 680.49 323.48
  C 717.84 313.19 735.79 280.95 736.05 244.00
  Q 736.43 190.54 736.19 137.17
  A 0.42 0.41 90.0 0 0 735.78 136.75
  L 673.03 136.75
  A 0.51 0.50 -90.0 0 0 672.53 137.26
  Q 672.47 189.76 672.42 242.25
  C 672.40 261.92 660.66 275.03 639.96 273.00
  C 617.90 270.84 613.71 253.83 613.72 234.75
  Q 613.74 176.94 613.80 119.07
  A 0.32 0.32 0.0 0 1 614.12 118.75"
/>
<path stroke="#a2a3a4" vector-effect="non-scaling-stroke" d="
  M 23.56 296.49
  A 0.54 0.53 40.1 0 0 23.63 297.25
  C 55.51 323.28 98.77 331.92 138.93 326.97
  C 171.34 322.97 199.81 304.14 202.09 269.00
  C 205.46 217.19 150.63 209.29 113.04 201.52
  C 107.10 200.29 94.27 197.21 97.20 188.53
  C 98.98 183.25 106.29 182.43 110.99 182.54
  Q 141.82 183.22 167.01 200.64
  A 0.51 0.50 34.5 0 0 167.70 200.52
  L 197.33 159.33
  A 0.61 0.60 36.7 0 0 197.20 158.50
  C 169.05 137.15 133.88 130.72 98.76 134.16
  C 62.95 137.67 31.34 160.08 33.51 199.60
  C 35.24 230.98 60.06 243.43 86.51 251.23
  Q 98.84 254.87 122.32 259.63
  C 125.96 260.36 137.47 263.55 138.52 268.01
  C 140.46 276.26 132.90 278.75 126.68 278.95
  Q 87.91 280.21 56.91 257.49
  A 0.61 0.60 -51.5 0 0 56.09 257.59
  L 23.56 296.49"
/>
<path stroke="#a2a3a4" vector-effect="non-scaling-stroke" d="
  M 268.48 273.47
  A 0.30 0.30 0.0 0 1 268.18 273.17
  L 268.24 252.80
  A 0.30 0.30 0.0 0 1 268.54 252.50
  L 359.90 252.50
  A 0.30 0.30 0.0 0 0 360.20 252.20
  L 360.20 208.05
  A 0.30 0.30 0.0 0 0 359.90 207.75
  L 268.46 207.75
  A 0.30 0.30 0.0 0 1 268.16 207.45
  L 268.16 188.30
  A 0.30 0.30 0.0 0 1 268.46 188.00
  L 366.44 188.00
  A 0.30 0.30 0.0 0 0 366.74 187.70
  L 366.77 137.05
  A 0.30 0.30 0.0 0 0 366.47 136.75
  L 207.05 136.75
  A 0.30 0.30 0.0 0 0 206.75 137.05
  L 206.75 324.45
  A 0.30 0.30 0.0 0 0 207.05 324.75
  L 367.95 324.75
  A 0.30 0.30 0.0 0 0 368.25 324.45
  L 368.25 274.13
  A 0.30 0.30 0.0 0 0 367.95 273.83
  L 268.48 273.47"
/>
<path stroke="#a2a3a4" vector-effect="non-scaling-stroke" d="
  M 489.50 190.38
  A 0.88 0.87 -90.0 0 1 490.37 189.50
  L 544.50 189.50
  A 0.50 0.49 -90.0 0 0 544.99 189.00
  L 545.01 137.35
  A 0.60 0.60 0.0 0 0 544.41 136.75
  L 372.25 136.75
  A 0.50 0.50 0.0 0 0 371.75 137.25
  L 371.75 188.97
  A 0.51 0.50 0.0 0 0 372.26 189.47
  C 387.33 189.49 402.49 189.22 417.55 189.74
  Q 421.52 189.88 425.69 189.39
  A 1.18 1.17 -3.3 0 1 427.00 190.55
  L 427.00 324.25
  A 0.50 0.50 0.0 0 0 427.50 324.75
  L 489.00 324.75
  A 0.50 0.50 0.0 0 0 489.50 324.25
  L 489.50 190.38"
/>
<path stroke="#dbe893" vector-effect="non-scaling-stroke" d="
  M 804.50 273.81
  Q 816.89 273.71 829.23 273.53
  C 877.36 272.82 916.07 245.17 908.89 192.53
  C 903.27 151.32 864.48 137.19 828.24 136.96
  Q 785.04 136.69 741.74 136.80
  A 0.49 0.48 -0.0 0 0 741.25 137.28
  L 741.25 324.34
  A 0.41 0.41 0.0 0 0 741.66 324.75
  L 803.48 324.75
  A 0.49 0.49 0.0 0 0 803.97 324.27
  L 804.02 274.30
  A 0.49 0.48 -90.0 0 1 804.50 273.81"
/>
<path stroke="#dbe893" vector-effect="non-scaling-stroke" d="
  M 804.47 229.19
  C 819.59 229.73 847.04 231.71 847.99 209.01
  C 849.07 183.28 820.63 186.70 804.44 186.77
  A 0.44 0.44 0.0 0 0 804.00 187.21
  L 804.00 228.70
  A 0.49 0.49 0.0 0 0 804.47 229.19"
/>
</g>
<g fill="#ffffff">
<path d="
  M 191.30 321.38
  C 173.11 336.34 148.10 342.61 124.97 343.36
  C 89.62 344.50 50.88 335.99 21.91 314.91
  C 14.32 309.38 8.80 305.42 8.65 296.50
  Q 8.55 290.68 13.08 285.33
  Q 28.51 267.09 43.76 248.70
  A 0.48 0.48 0.0 0 0 43.68 248.01
  C 17.81 228.59 12.84 198.02 23.45 168.69
  C 35.29 136.00 70.81 120.45 103.29 118.42
  C 132.39 116.61 165.63 121.78 191.50 136.47
  A 0.33 0.32 18.1 0 0 191.99 136.23
  C 193.48 123.66 201.82 121.81 213.28 121.80
  Q 289.34 121.70 365.40 121.77
  Q 365.52 121.77 368.56 122.15
  C 370.13 122.34 371.54 121.76 372.91 121.76
  Q 428.43 121.75 483.95 121.75
  A 0.42 0.42 0.0 0 0 484.36 121.26
  C 483.59 116.96 484.46 112.13 487.36 108.67
  Q 528.49 59.64 569.31 10.36
  C 574.88 3.64 581.80 0.49 590.09 4.70
  Q 592.98 6.17 596.24 10.10
  C 623.32 42.69 650.10 75.71 677.85 107.71
  C 681.41 111.81 682.35 116.13 681.64 121.25
  A 0.44 0.44 0.0 0 0 682.08 121.74
  Q 751.66 121.79 821.26 121.74
  C 839.25 121.73 854.07 123.40 870.46 128.60
  C 893.71 135.97 913.84 153.51 920.93 177.20
  C 927.48 199.09 925.92 224.72 914.98 244.99
  C 900.21 272.34 871.58 283.78 842.06 287.86
  Q 837.19 288.53 819.68 289.13
  A 0.52 0.52 0.0 0 0 819.18 289.65
  Q 819.07 304.92 818.94 320.13
  C 818.82 334.63 814.56 339.87 799.99 339.95
  Q 758.52 340.17 741.00 339.94
  C 726.99 339.75 724.98 326.69 726.15 315.86
  Q 726.42 313.35 724.62 315.13
  C 693.74 345.87 640.04 348.75 600.28 337.61
  C 560.45 326.46 540.53 295.38 535.92 256.04
  C 534.07 240.28 534.94 221.93 534.99 205.26
  A 0.51 0.50 90.0 0 0 534.49 204.75
  L 505.05 204.74
  A 0.36 0.35 90.0 0 0 504.70 205.10
  Q 504.80 264.01 504.74 323.01
  C 504.73 325.59 503.22 331.09 501.47 333.56
  Q 496.95 339.95 488.99 339.96
  Q 458.53 340.03 428.04 340.00
  C 416.68 339.98 412.00 332.62 412.00 322.07
  Q 412.00 263.68 412.00 205.20
  A 0.46 0.45 -0.0 0 0 411.54 204.75
  L 375.03 204.75
  A 0.42 0.41 -4.7 0 0 374.62 205.23
  C 374.82 206.38 375.25 207.47 375.25 208.61
  Q 375.25 229.15 375.25 249.69
  C 375.25 253.19 374.46 256.01 373.47 259.24
  A 0.57 0.56 21.2 0 0 373.78 259.92
  C 381.97 263.59 383.09 269.64 383.18 278.60
  Q 383.55 312.67 383.15 324.23
  C 382.66 338.06 373.25 339.99 361.20 339.99
  Q 286.70 340.02 212.22 339.98
  C 204.01 339.97 197.18 339.24 193.60 331.97
  Q 191.69 328.07 191.68 321.56
  Q 191.68 321.07 191.30 321.38
  Z
  M 614.12 118.75
  L 666.47 118.75
  A 0.23 0.23 0.0 0 0 666.65 118.37
  L 583.19 18.20
  A 0.38 0.37 44.6 0 0 582.62 18.20
  L 499.26 118.25
  Q 498.85 118.75 499.50 118.75
  L 549.78 118.75
  A 0.48 0.48 0.0 0 1 550.26 119.23
  Q 550.22 177.13 550.28 234.98
  C 550.30 252.25 551.84 270.08 558.76 285.00
  C 569.54 308.25 589.34 320.44 613.82 325.46
  Q 647.93 332.46 680.49 323.48
  C 717.84 313.19 735.79 280.95 736.05 244.00
  Q 736.43 190.54 736.19 137.17
  A 0.42 0.41 90.0 0 0 735.78 136.75
  L 673.03 136.75
  A 0.51 0.50 -90.0 0 0 672.53 137.26
  Q 672.47 189.76 672.42 242.25
  C 672.40 261.92 660.66 275.03 639.96 273.00
  C 617.90 270.84 613.71 253.83 613.72 234.75
  Q 613.74 176.94 613.80 119.07
  A 0.32 0.32 0.0 0 1 614.12 118.75
  Z
  M 23.56 296.49
  A 0.54 0.53 40.1 0 0 23.63 297.25
  C 55.51 323.28 98.77 331.92 138.93 326.97
  C 171.34 322.97 199.81 304.14 202.09 269.00
  C 205.46 217.19 150.63 209.29 113.04 201.52
  C 107.10 200.29 94.27 197.21 97.20 188.53
  C 98.98 183.25 106.29 182.43 110.99 182.54
  Q 141.82 183.22 167.01 200.64
  A 0.51 0.50 34.5 0 0 167.70 200.52
  L 197.33 159.33
  A 0.61 0.60 36.7 0 0 197.20 158.50
  C 169.05 137.15 133.88 130.72 98.76 134.16
  C 62.95 137.67 31.34 160.08 33.51 199.60
  C 35.24 230.98 60.06 243.43 86.51 251.23
  Q 98.84 254.87 122.32 259.63
  C 125.96 260.36 137.47 263.55 138.52 268.01
  C 140.46 276.26 132.90 278.75 126.68 278.95
  Q 87.91 280.21 56.91 257.49
  A 0.61 0.60 -51.5 0 0 56.09 257.59
  L 23.56 296.49
  Z
  M 268.48 273.47
  A 0.30 0.30 0.0 0 1 268.18 273.17
  L 268.24 252.80
  A 0.30 0.30 0.0 0 1 268.54 252.50
  L 359.90 252.50
  A 0.30 0.30 0.0 0 0 360.20 252.20
  L 360.20 208.05
  A 0.30 0.30 0.0 0 0 359.90 207.75
  L 268.46 207.75
  A 0.30 0.30 0.0 0 1 268.16 207.45
  L 268.16 188.30
  A 0.30 0.30 0.0 0 1 268.46 188.00
  L 366.44 188.00
  A 0.30 0.30 0.0 0 0 366.74 187.70
  L 366.77 137.05
  A 0.30 0.30 0.0 0 0 366.47 136.75
  L 207.05 136.75
  A 0.30 0.30 0.0 0 0 206.75 137.05
  L 206.75 324.45
  A 0.30 0.30 0.0 0 0 207.05 324.75
  L 367.95 324.75
  A 0.30 0.30 0.0 0 0 368.25 324.45
  L 368.25 274.13
  A 0.30 0.30 0.0 0 0 367.95 273.83
  L 268.48 273.47
  Z
  M 489.50 190.38
  A 0.88 0.87 -90.0 0 1 490.37 189.50
  L 544.50 189.50
  A 0.50 0.49 -90.0 0 0 544.99 189.00
  L 545.01 137.35
  A 0.60 0.60 0.0 0 0 544.41 136.75
  L 372.25 136.75
  A 0.50 0.50 0.0 0 0 371.75 137.25
  L 371.75 188.97
  A 0.51 0.50 0.0 0 0 372.26 189.47
  C 387.33 189.49 402.49 189.22 417.55 189.74
  Q 421.52 189.88 425.69 189.39
  A 1.18 1.17 -3.3 0 1 427.00 190.55
  L 427.00 324.25
  A 0.50 0.50 0.0 0 0 427.50 324.75
  L 489.00 324.75
  A 0.50 0.50 0.0 0 0 489.50 324.25
  L 489.50 190.38
  Z
  M 804.50 273.81
  Q 816.89 273.71 829.23 273.53
  C 877.36 272.82 916.07 245.17 908.89 192.53
  C 903.27 151.32 864.48 137.19 828.24 136.96
  Q 785.04 136.69 741.74 136.80
  A 0.49 0.48 -0.0 0 0 741.25 137.28
  L 741.25 324.34
  A 0.41 0.41 0.0 0 0 741.66 324.75
  L 803.48 324.75
  A 0.49 0.49 0.0 0 0 803.97 324.27
  L 804.02 274.30
  A 0.49 0.48 -90.0 0 1 804.50 273.81
  Z"
/>
<path d="
  M 847.99 209.01
  C 847.04 231.71 819.59 229.73 804.47 229.19
  A 0.49 0.49 0.0 0 1 804.00 228.70
  L 804.00 187.21
  A 0.44 0.44 0.0 0 1 804.44 186.77
  C 820.63 186.70 849.07 183.28 847.99 209.01
  Z"
/>
</g>
<g fill="#454648">
<path d="
  M 23.56 296.49
  L 56.09 257.59
  A 0.61 0.60 -51.5 0 1 56.91 257.49
  Q 87.91 280.21 126.68 278.95
  C 132.90 278.75 140.46 276.26 138.52 268.01
  C 137.47 263.55 125.96 260.36 122.32 259.63
  Q 98.84 254.87 86.51 251.23
  C 60.06 243.43 35.24 230.98 33.51 199.60
  C 31.34 160.08 62.95 137.67 98.76 134.16
  C 133.88 130.72 169.05 137.15 197.20 158.50
  A 0.61 0.60 36.7 0 1 197.33 159.33
  L 167.70 200.52
  A 0.51 0.50 34.5 0 1 167.01 200.64
  Q 141.82 183.22 110.99 182.54
  C 106.29 182.43 98.98 183.25 97.20 188.53
  C 94.27 197.21 107.10 200.29 113.04 201.52
  C 150.63 209.29 205.46 217.19 202.09 269.00
  C 199.81 304.14 171.34 322.97 138.93 326.97
  C 98.77 331.92 55.51 323.28 23.63 297.25
  A 0.54 0.53 40.1 0 1 23.56 296.49
  Z"
/>
<path d="
  M 268.48 273.47
  L 367.95 273.83
  A 0.30 0.30 0.0 0 1 368.25 274.13
  L 368.25 324.45
  A 0.30 0.30 0.0 0 1 367.95 324.75
  L 207.05 324.75
  A 0.30 0.30 0.0 0 1 206.75 324.45
  L 206.75 137.05
  A 0.30 0.30 0.0 0 1 207.05 136.75
  L 366.47 136.75
  A 0.30 0.30 0.0 0 1 366.77 137.05
  L 366.74 187.70
  A 0.30 0.30 0.0 0 1 366.44 188.00
  L 268.46 188.00
  A 0.30 0.30 0.0 0 0 268.16 188.30
  L 268.16 207.45
  A 0.30 0.30 0.0 0 0 268.46 207.75
  L 359.90 207.75
  A 0.30 0.30 0.0 0 1 360.20 208.05
  L 360.20 252.20
  A 0.30 0.30 0.0 0 1 359.90 252.50
  L 268.54 252.50
  A 0.30 0.30 0.0 0 0 268.24 252.80
  L 268.18 273.17
  A 0.30 0.30 0.0 0 0 268.48 273.47
  Z"
/>
<path d="
  M 489.50 190.38
  L 489.50 324.25
  A 0.50 0.50 0.0 0 1 489.00 324.75
  L 427.50 324.75
  A 0.50 0.50 0.0 0 1 427.00 324.25
  L 427.00 190.55
  A 1.18 1.17 -3.3 0 0 425.69 189.39
  Q 421.52 189.88 417.55 189.74
  C 402.49 189.22 387.33 189.49 372.26 189.47
  A 0.51 0.50 0.0 0 1 371.75 188.97
  L 371.75 137.25
  A 0.50 0.50 0.0 0 1 372.25 136.75
  L 544.41 136.75
  A 0.60 0.60 0.0 0 1 545.01 137.35
  L 544.99 189.00
  A 0.50 0.49 -90.0 0 1 544.50 189.50
  L 490.37 189.50
  A 0.88 0.87 90.0 0 0 489.50 190.38
  Z"
/>
</g>
<g fill="#b7d126">
<path d="
  M 614.12 118.75
  A 0.32 0.32 0.0 0 0 613.80 119.07
  Q 613.74 176.94 613.72 234.75
  C 613.71 253.83 617.90 270.84 639.96 273.00
  C 660.66 275.03 672.40 261.92 672.42 242.25
  Q 672.47 189.76 672.53 137.26
  A 0.51 0.50 -90.0 0 1 673.03 136.75
  L 735.78 136.75
  A 0.42 0.41 -90.0 0 1 736.19 137.17
  Q 736.43 190.54 736.05 244.00
  C 735.79 280.95 717.84 313.19 680.49 323.48
  Q 647.93 332.46 613.82 325.46
  C 589.34 320.44 569.54 308.25 558.76 285.00
  C 551.84 270.08 550.30 252.25 550.28 234.98
  Q 550.22 177.13 550.26 119.23
  A 0.48 0.48 0.0 0 0 549.78 118.75
  L 499.50 118.75
  Q 498.85 118.75 499.26 118.25
  L 582.62 18.20
  A 0.38 0.37 44.6 0 1 583.19 18.20
  L 666.65 118.37
  A 0.23 0.23 0.0 0 1 666.47 118.75
  L 614.12 118.75
  Z"
/>
<path d="
  M 804.02 274.30
  L 803.97 324.27
  A 0.49 0.49 0.0 0 1 803.48 324.75
  L 741.66 324.75
  A 0.41 0.41 0.0 0 1 741.25 324.34
  L 741.25 137.28
  A 0.49 0.48 -0.0 0 1 741.74 136.80
  Q 785.04 136.69 828.24 136.96
  C 864.48 137.19 903.27 151.32 908.89 192.53
  C 916.07 245.17 877.36 272.82 829.23 273.53
  Q 816.89 273.71 804.50 273.81
  A 0.49 0.48 -90.0 0 0 804.02 274.30
  Z
  M 804.47 229.19
  C 819.59 229.73 847.04 231.71 847.99 209.01
  C 849.07 183.28 820.63 186.70 804.44 186.77
  A 0.44 0.44 0.0 0 0 804.00 187.21
  L 804.00 228.70
  A 0.49 0.49 0.0 0 0 804.47 229.19
  Z"
/>
</g>
</svg>
